file/korg.svg

<svg clip-rule="evenodd" fill-rule="evenodd" stroke-linejoin="round" stroke-miterlimit="1.41421" viewBox="0 0 560 400" xmlns="http://www.w3.org/2000/svg"><path d="m1001.6 11.832h-144.485c-70.093 0-75.02 68.574-75.02 68.574v190.45c.101 61.174 69.781 69.047 69.781 69.047h149.724v-177.791c17.2 0 15.99-32.065 0-32.065h-95.216v121.484c0 22.583-32.779 22.583-32.779 0v-151.045c0-14.62 16.389-16.42 16.389-16.42h111.606zm-354.542 114.937c0 19.436-32.88 21.578-32.88 0v-32.839c-.905-22.543 32.98-22.935 32.88 0zm78.73 59.093-39.415-9.844c30.767-8.084 47.559-24.996 48.062-52.748v-63.939c0-10.859-13.775-45.86-57.916-47.489h-154.242v328.363h91.901v-124.792c-2.111-6.455 14.781-20.954 19.507-2.001l26.444 126.793h101.856zm-334.939 65.669c0 20.522-32.779 20.873-32.779 0v-151.045c0-20.663 32.779-20.512 32.779 0zm91.701-171.708s-3.218-66.362-75.211-69.64h-65.658c-8.447-.291-74.718 9.311-75.623 75.532v186.629s5.731 69.329 75.623 69.479h65.658s75.613-2.564 75.512-75.502zm-472.601 260.372v-328.363h92.003v121.483c1.508 16.5 18.3 9.17 19.506 1.569l19.909-123.052h101.766l-36.098 151.044-39.415 9.834 42.633 9.864 36.198 157.621h-101.856l-23.137-133.037c-1.106-10.296-19.205-10.386-19.506 1.689-.302 12.056 0 131.348 0 131.348z" fill="#231f20" fill-rule="nonzero" transform="matrix(.35853 0 0 .35853 96.4328 136.899)"/></svg>

<?xml version="1.0" encoding="UTF-8" standalone="no"?>
<!DOCTYPE svg PUBLIC "-//W3C//DTD SVG 1.1//EN" "http://www.w3.org/Graphics/SVG/1.1/DTD/svg11.dtd">
<svg width="100%" height="100%" viewBox="0 0 560 400" version="1.1" xmlns="http://www.w3.org/2000/svg" xmlns:xlink="http://www.w3.org/1999/xlink" xml:space="preserve" xmlns:serif="http://www.serif.com/" style="fill-rule:evenodd;clip-rule:evenodd;stroke-linejoin:round;stroke-miterlimit:1.41421;">
    <g id="path15272" transform="matrix(0.35853,0,0,0.35853,96.4328,136.899)">
        <path d="M1001.6,11.832L857.115,11.832C787.022,11.832 782.095,80.406 782.095,80.406L782.095,270.856C782.196,332.03 851.876,339.903 851.876,339.903L1001.6,339.903L1001.6,162.112C1018.8,162.112 1017.59,130.047 1001.6,130.047L906.384,130.047L906.384,251.531C906.384,274.114 873.605,274.114 873.605,251.531L873.605,100.486C873.605,85.866 889.994,84.066 889.994,84.066L1001.6,84.066L1001.6,11.832M647.058,126.769C647.058,146.205 614.178,148.347 614.178,126.769L614.178,93.93C613.273,71.387 647.158,70.995 647.058,93.93L647.058,126.769ZM725.788,185.862L686.373,176.018C717.14,167.934 733.932,151.022 734.435,123.27L734.435,59.331C734.435,48.472 720.66,13.471 676.519,11.842L522.277,11.842L522.277,340.205L614.178,340.205L614.178,215.413C612.067,208.958 628.959,194.459 633.685,213.412L660.129,340.205L761.985,340.205L725.788,185.862M390.849,251.531C390.849,272.053 358.07,272.404 358.07,251.531L358.07,100.486C358.07,79.823 390.849,79.974 390.849,100.486L390.849,251.531ZM482.55,79.823C482.55,79.823 479.332,13.461 407.339,10.183L341.681,10.183C333.234,9.892 266.963,19.494 266.058,85.715L266.058,272.344C266.058,272.344 271.789,341.673 341.681,341.823L407.339,341.823C407.339,341.823 482.952,339.259 482.851,266.321L482.55,79.823M9.949,340.195L9.949,11.832L101.952,11.832L101.952,133.315C103.46,149.815 120.252,142.485 121.458,134.884L141.367,11.832L243.133,11.832L207.035,162.876L167.62,172.71L210.253,182.574L246.451,340.195L144.595,340.195L121.458,207.158C120.352,196.862 102.253,196.772 101.952,208.847C101.65,220.903 101.952,340.195 101.952,340.195L9.949,340.195" style="fill:rgb(35,31,32);fill-rule:nonzero;"/>
    </g>
</svg>
